icons/src/scalable/default/mimetypes/font-x-generic-symbolic.svg

<?xml version="1.0" encoding="UTF-8" standalone="no"?>
<svg
   xmlns:dc="http://purl.org/dc/elements/1.1/"
   xmlns:cc="http://creativecommons.org/ns#"
   xmlns:rdf="http://www.w3.org/1999/02/22-rdf-syntax-ns#"
   xmlns:svg="http://www.w3.org/2000/svg"
   xmlns="http://www.w3.org/2000/svg"
   xmlns:sodipodi="http://sodipodi.sourceforge.net/DTD/sodipodi-0.dtd"
   xmlns:inkscape="http://www.inkscape.org/namespaces/inkscape"
   width="16"
   height="16"
   version="1.1"
   id="svg4"
   sodipodi:docname="font-x-generic-symbolic.svg"
   inkscape:version="1.0.2 (e86c870879, 2021-01-15)">
  <metadata
     id="metadata10">
    <rdf:RDF>
      <cc:Work
         rdf:about="">
        <dc:format>image/svg+xml</dc:format>
        <dc:type
           rdf:resource="http://purl.org/dc/dcmitype/StillImage" />
      </cc:Work>
    </rdf:RDF>
  </metadata>
  <defs
     id="defs8" />
  <sodipodi:namedview
     pagecolor="#ffffff"
     bordercolor="#666666"
     borderopacity="1"
     objecttolerance="10"
     gridtolerance="10"
     guidetolerance="10"
     inkscape:pageopacity="0"
     inkscape:pageshadow="2"
     inkscape:window-width="1366"
     inkscape:window-height="704"
     id="namedview6"
     showgrid="true"
     inkscape:zoom="15.25"
     inkscape:cx="8.3929182"
     inkscape:cy="9.0697216"
     inkscape:window-x="0"
     inkscape:window-y="27"
     inkscape:window-maximized="1"
     inkscape:current-layer="svg4"
     inkscape:document-rotation="0">
    <inkscape:grid
       type="xygrid"
       id="grid855" />
  </sodipodi:namedview>
  <path
     id="path3032-7"
     style="font-style:normal;font-variant:normal;font-weight:500;font-stretch:normal;font-size:17.3333px;line-height:1.25;font-family:Ubuntu;-inkscape-font-specification:'Ubuntu, Medium';font-variant-ligatures:normal;font-variant-caps:normal;font-variant-numeric:normal;font-feature-settings:normal;text-align:start;letter-spacing:0px;word-spacing:0px;writing-mode:lr-tb;text-anchor:start;fill:#bebebe;fill-opacity:1;stroke:none;stroke-width:0.9995"
     d="M 8.9609375,0 C 8.5564875,0.85426 8.16258,1.7203062 7.78125,2.5976562 7.6831088,2.8234534 7.5814055,3.0787334 7.4824219,3.3105469 L 8.5273438,6.048828 C 8.7143458,5.540794 8.9067599,5.013562 9.0820312,4.5546875 9.4287012,3.6773275 9.73422,2.9321425 10,2.3203125 c 0.25422,0.58874 0.553721,1.3279069 0.900391,2.2167969 C 11.197371,5.298569 11.508016,6.13675 11.822266,7 H 8.8925781 L 9.65625,9 h 2.744141 c 0.16178,0.48485 0.406748,1.135896 0.580078,1.597656 0.17333,0.46176 0.342126,0.929044 0.503906,1.402344 h 2.357422 C 15.391127,10.71861 14.957016,9.536312 14.541016,8.451172 14.136566,7.366042 13.738593,6.336888 13.345703,5.367188 12.964373,4.3974875 12.582502,3.4749962 12.201172,2.5976562 11.819842,1.7203063 11.427887,0.85426 11.023438,0 Z" />
  <g
     id="layer9"
     label="status"
     style="display:inline"
     transform="translate(-413.0002,-93)" />
  <g
     id="layer2"
     style="display:inline"
     transform="translate(-172,-460)" />
  <g
     id="layer4"
     style="display:inline"
     transform="translate(-172,-460)" />
  <g
     id="g1812"
     style="display:inline"
     transform="translate(-172,-460)" />
  <g
     id="g6217"
     style="display:inline"
     transform="translate(-172,-460)" />
  <g
     id="layer3"
     style="display:inline"
     transform="translate(-172,-460)" />
  <g
     id="g1833"
     style="display:inline"
     transform="translate(-172,-460)" />
  <path
     id="path876"
     style="color:#000000;font-style:normal;font-variant:normal;font-weight:normal;font-stretch:normal;font-size:medium;line-height:normal;font-family:sans-serif;font-variant-ligatures:normal;font-variant-position:normal;font-variant-caps:normal;font-variant-numeric:normal;font-variant-alternates:normal;font-variant-east-asian:normal;font-feature-settings:normal;font-variation-settings:normal;text-indent:0;text-align:start;text-decoration:none;text-decoration-line:none;text-decoration-style:solid;text-decoration-color:#000000;letter-spacing:normal;word-spacing:normal;text-transform:none;writing-mode:lr-tb;direction:ltr;text-orientation:mixed;dominant-baseline:auto;baseline-shift:baseline;text-anchor:start;white-space:normal;shape-padding:0;shape-margin:0;inline-size:0;clip-rule:nonzero;display:inline;overflow:visible;visibility:visible;isolation:auto;mix-blend-mode:normal;color-interpolation:sRGB;color-interpolation-filters:linearRGB;solid-color:#000000;solid-opacity:1;vector-effect:none;fill:#bebebe;fill-opacity:1;fill-rule:nonzero;stroke:none;stroke-width:1px;stroke-linecap:butt;stroke-linejoin:miter;stroke-miterlimit:4;stroke-dasharray:none;stroke-dashoffset:0;stroke-opacity:1;color-rendering:auto;image-rendering:auto;shape-rendering:auto;text-rendering:auto;enable-background:accumulate;stop-color:#000000"
     d="M 6.675,4 H 5.325 L 1.15625,15 H 0 v 1 H 3 V 15 H 2.2246094 l 1.1425781,-3 h 4.2304687 l 1.1425782,3 H 8 v 1 h 4 V 15 H 10.878906 Z M 5.4824219,6.449219 7.2167969,11 h -3.46875 z"
     sodipodi:nodetypes="ccccccccccccccccccccc" />
</svg>

<svg version="1.1" viewBox="0 0 16 16" xmlns="http://www.w3.org/2000/svg">
 <path d="m8.9609 0c-0.40445 0.85426-0.79836 1.7203-1.1797 2.5977-0.098141 0.2258-0.19984 0.48108-0.29883 0.71289l1.0449 2.7383c0.187-0.50803 0.37942-1.0353 0.55469-1.4941 0.34667-0.87736 0.65219-1.6225 0.91797-2.2344 0.25422 0.58874 0.55372 1.3279 0.90039 2.2168 0.29698 0.76146 0.60762 1.5996 0.92188 2.4629h-2.9297l0.76367 2h2.7441c0.16178 0.48485 0.40675 1.1359 0.58008 1.5977s0.34213 0.92904 0.50391 1.4023h2.3574c-0.45067-1.2814-0.88478-2.4637-1.3008-3.5488-0.40445-1.0851-0.80242-2.1143-1.1953-3.084-0.38133-0.9697-0.7632-1.8922-1.1445-2.7695-0.38133-0.87735-0.77328-1.7434-1.1777-2.5977z" fill="#bebebe" style="font-feature-settings:normal;font-variant-caps:normal;font-variant-ligatures:normal;font-variant-numeric:normal"/>
 <path d="m6.675 4h-1.35l-4.1688 11h-1.1562v1h3v-1h-0.77539l1.1426-3h4.2305l1.1426 3h-0.74023v1h4v-1h-1.1211zm-1.1926 2.4492 1.7344 4.5508h-3.4688z" color="#000000" color-rendering="auto" dominant-baseline="auto" fill="#bebebe" image-rendering="auto" shape-rendering="auto" solid-color="#000000" stop-color="#000000" style="font-feature-settings:normal;font-variant-alternates:normal;font-variant-caps:normal;font-variant-east-asian:normal;font-variant-ligatures:normal;font-variant-numeric:normal;font-variant-position:normal;font-variation-settings:normal;inline-size:0;isolation:auto;mix-blend-mode:normal;shape-margin:0;shape-padding:0;text-decoration-color:#000000;text-decoration-line:none;text-decoration-style:solid;text-indent:0;text-orientation:mixed;text-transform:none;white-space:normal"/>
</svg>
